X: 605
P: Longways for as many as will
M: 6/4
L: 1/4
K: Gm
b2b b>ag | a2a a2d | g2g g>ba | ^f>ga d2d |\
f2f f>ed | e2e e>fg | c2c c>de | d>cB B2 :|
|: f |\
d2d d>cB | f2f f2c | e2e e>dc | g2g g2G |\

